svg/SJJB-OpenStreetMapIcons/transport/bus_stop.svg

<?xml version="1.0" encoding="UTF-8" standalone="no"?>
<!-- Created with Inkscape (http://www.inkscape.org/) -->
<svg
   xmlns:dc="http://purl.org/dc/elements/1.1/"
   xmlns:cc="http://creativecommons.org/ns#"
   xmlns:rdf="http://www.w3.org/1999/02/22-rdf-syntax-ns#"
   xmlns:svg="http://www.w3.org/2000/svg"
   xmlns="http://www.w3.org/2000/svg"
   xmlns:sodipodi="http://sodipodi.sourceforge.net/DTD/sodipodi-0.dtd"
   xmlns:inkscape="http://www.inkscape.org/namespaces/inkscape"
   version="1.0"
   width="580"
   height="580"
   id="svg2"
   sodipodi:version="0.32"
   inkscape:version="0.46"
   sodipodi:docname="highway_bus_stop.svg"
   sodipodi:docbase="s:\Data\FacilityIcons"
   inkscape:output_extension="org.inkscape.output.svg.inkscape">
  <metadata
     id="metadata1976">
    <rdf:RDF>
      <cc:Work
         rdf:about="">
        <dc:format>image/svg+xml</dc:format>
        <dc:type
           rdf:resource="http://purl.org/dc/dcmitype/StillImage" />
			  <cc:license
           rdf:resource="http://web.resource.org/cc/PublicDomain" />
        <dc:language>en</dc:language>
      </cc:Work>
    </rdf:RDF>
  </metadata>
  <sodipodi:namedview
     inkscape:window-height="1003"
     inkscape:window-width="758"
     inkscape:pageshadow="2"
     inkscape:pageopacity="0.0"
     guidetolerance="10.0"
     gridtolerance="10.0"
     objecttolerance="10.0"
     borderopacity="1.0"
     bordercolor="#666666"
     pagecolor="#ffffff"
     id="base"
     inkscape:zoom="0.65172414"
     inkscape:cx="68.469786"
     inkscape:cy="186.81904"
     inkscape:window-x="12"
     inkscape:window-y="13"
     inkscape:current-layer="svg2"
     showgrid="false" />
  <defs
     id="defs4">
    <inkscape:perspective
       sodipodi:type="inkscape:persp3d"
       inkscape:vp_x="0 : 290 : 1"
       inkscape:vp_y="0 : 1000 : 0"
       inkscape:vp_z="580 : 290 : 1"
       inkscape:persp3d-origin="290 : 193.33333 : 1"
       id="perspective3653" />
    <marker
       viewBox="0 0 10 10"
       refY="5"
       refX="10"
       orient="auto"
       markerWidth="4"
       markerUnits="strokeWidth"
       markerHeight="3"
       id="ArrowStart">
      <path
         id="path2111"
         d="M 10 0 L 0 5 L 10 10 z" />
    </marker>
    <marker
       viewBox="0 0 10 10"
       refY="5"
       refX="0"
       orient="auto"
       markerWidth="4"
       markerUnits="strokeWidth"
       markerHeight="3"
       id="ArrowEnd">
      <path
         id="path2108"
         d="M 0 0 L 10 5 L 0 10 z" />
    </marker>
    <inkscape:perspective
       id="perspective2512"
       inkscape:persp3d-origin="177.51199 : 145.02 : 1"
       inkscape:vp_z="355.02399 : 217.53 : 1"
       inkscape:vp_y="0 : 1000 : 0"
       inkscape:vp_x="0 : 217.53 : 1"
       sodipodi:type="inkscape:persp3d" />
  </defs>
  <g
     id="g1327">
    <path
       d="M 66.275,1.768 C 24.94,1.768 1.704,23.139 1.704,66.804 L 1.704,516.927 C 1.704,557.771 22.6,579.156 63.896,579.156 L 515.92,579.156 C 557.227,579.156 578.149,558.842 578.149,516.927 L 578.149,66.804 C 578.149,24.203 557.227,1.768 514.628,1.768 C 514.624,1.768 66.133,1.625 66.275,1.768 z "
       style="fill:#111;stroke:#eee;stroke-width:3.40799999"
       id="path1329" />
  </g>
  <path
     style="fill:#ffffff;stroke:none"
     d="M 290.625 34.5625 C 291.30137 34.5625 292.00406 34.588371 292.6875 34.59375 C 293.37567 34.588298 294.069 34.5625 294.75 34.5625 L 290.625 34.5625 z M 292.6875 34.59375 C 244.66265 34.974252 179.59571 48.496579 152.4375 59.8125 C 124.89013 71.290575 106.51969 82.774174 100.78125 111.46875 L 80.125 270.5625 L 80.125 489.75 L 115.71875 489.75 L 115.71875 524.125 C 115.71875 566.03764 177.03125 566.03762 177.03125 524.125 L 177.03125 489.75 L 290.28125 489.75 L 290.625 489.75 L 408.34375 489.75 L 408.34375 524.125 C 408.34375 566.03764 469.6875 566.03762 469.6875 524.125 L 469.6875 489.75 L 505.28125 489.75 L 505.28125 270.5625 L 484.625 111.46875 C 478.88656 82.774174 460.51613 71.290573 432.96875 59.8125 C 405.80789 48.495478 340.71371 34.971722 292.6875 34.59375 z M 205.25 74.75 L 290.625 74.75 L 380.15625 74.75 C 397.37395 74.750004 397.37396 100.5625 380.15625 100.5625 L 290.4375 100.5625 L 205.25 100.5625 C 188.0323 100.5625 188.03229 74.75 205.25 74.75 z M 158.8125 126.65625 L 290.4375 126.65625 L 426.5625 126.65625 C 444.75018 126.65625 449.51057 135.88827 451.71875 149.90625 L 467.8125 265.28125 C 469.31177 276.3402 466.09144 287.31249 450.8125 287.3125 L 290.625 287.3125 L 134.5625 287.3125 C 119.28355 287.3125 116.09448 276.34019 117.59375 265.28125 L 133.6875 149.90625 C 135.8957 135.88827 140.62481 126.65625 158.8125 126.65625 z M 146.40625 362.1875 C 162.65398 362.18749 175.8125 375.37727 175.8125 391.625 C 175.8125 407.87274 162.65398 421.03125 146.40625 421.03125 C 130.15852 421.03126 116.96875 407.87273 116.96875 391.625 C 116.96875 375.37728 130.15852 362.1875 146.40625 362.1875 z M 439 362.1875 C 455.24773 362.1875 468.40624 375.37728 468.40625 391.625 C 468.40625 407.87273 455.24773 421.03126 439 421.03125 C 422.75227 421.03125 409.56249 407.87274 409.5625 391.625 C 409.5625 375.37727 422.75228 362.18749 439 362.1875 z "
     id="path2115" />
  <g
     id="g2117"
     transform="matrix(1.1975036,0,0,1.1975036,80.128205,34.575832)"
     style="fill:#000000">
    <g
       id="g2119"
       style="fill:#000000">
      <g
         id="g2121"
         style="fill:#000000">
        <path
           id="path2125"
           style="fill:#000000;stroke:none"
           d="" />
      </g>
      <g
         id="g2127"
         style="fill:#000000">
        <path
           id="path2131"
           style="fill:#000000;stroke:none"
           d="" />
      </g>
    </g>
  </g>
</svg>

<svg xmlns="http://www.w3.org/2000/svg" viewBox="0 0 580 580"><path d="m66.28 1.768c-41.34 0-64.57 21.371-64.57 65.04v450.12c0 40.844 20.896 62.23 62.19 62.23h452.02c41.31 0 62.23-20.314 62.23-62.23v-450.12c0-42.601-20.922-65.04-63.52-65.04-.004 0-448.5-.143-448.35 0z" fill="#111" stroke="#eee" stroke-width="3.408"/><path d="m290.62 34.563c.676 0 1.379.026 2.063.031.688-.005 1.382-.031 2.063-.031h-4.125m2.063.031c-48.02.381-113.09 13.903-140.25 25.22-27.547 11.478-45.918 22.962-51.656 51.656l-20.656 159.09v219.19h35.594v34.375c0 41.913 61.31 41.913 61.31 0v-34.375h113.25.344 117.72v34.375c0 41.913 61.34 41.913 61.34 0v-34.375h35.594v-219.19l-20.656-159.09c-5.738-28.695-24.11-40.18-51.656-51.656-27.16-11.317-92.26-24.841-140.28-25.22m-87.44 40.16h85.37 89.53c17.218 0 17.218 25.813 0 25.813h-89.72-85.19c-17.218 0-17.218-25.813 0-25.813m-46.44 51.906h131.62 136.12c18.19 0 22.948 9.232 25.16 23.25l16.09 115.37c1.499 11.06-1.721 22.03-17 22.03h-160.19-156.06c-15.279 0-18.468-10.972-16.969-22.03l16.09-115.37c2.208-14.02 6.937-23.25 25.12-23.25m-12.406 235.53c16.248 0 29.406 13.19 29.406 29.438 0 16.248-13.159 29.406-29.406 29.406-16.248 0-29.438-13.159-29.438-29.406 0-16.248 13.19-29.438 29.438-29.438m292.59 0c16.248 0 29.406 13.19 29.406 29.438 0 16.248-13.159 29.406-29.406 29.406-16.248 0-29.438-13.159-29.438-29.406 0-16.248 13.19-29.438 29.438-29.438" fill="#fff"/></svg>
